X:1
T:Johnny Cope
R:reel
M:4/4
K:Amix
"A"e2A2cBA2| e2A2c4|e2A2cBA2| E2F2"G"G4|
"A"e2A2cBA2|"D"B2c2d4|"A"e2a2"E"efed| "A"c2A2A4:|
|:"A"e2a2e2a2|edef gfec|"D"d2f2d2f2|"G"BABcd4|
"A"e2a2e2a2|edef"G" gfed| "A"e2a2"E"efed|"A"c2A2A4:|
